X: 47
T:Bourree (2 time)
M:2/4
L:1/8
S:Eurojam
R:Bourree
Z:Steve Mansfield
K:G
dedc | A/G/F/G/ A2 | D/E/F/G/ AG/A/ | dcA2 | dedc | A/G/F/G/A2 |
D/E/F/G/ A_B | AFG2 :: AA A/G/F/G/ | AD  DE/F/ | GF/G/ AG/A/ |
dc A2 | AA A/G/F/G/ | AD D2 | D/E/F/G/ A_B | AFG2 :|

